dist/images/svg/dish.svg

<svg width="44" height="44" viewBox="0 0 44 44" xmlns="http://www.w3.org/2000/svg">
<g clip-path="url(#clip0)">
<path d="M31.158 14.6574L30.6872 13.1258C30.0892 11.3861 28.1775 10.455 26.4173 11.046C25.4271 11.3786 24.6495 12.1471 24.3131 13.1258L23.8423 14.6574C23.4461 15.949 23.3629 17.3147 23.5995 18.6439C23.8153 19.763 24.5342 20.7245 25.5531 21.2569L25.0259 32.907C24.9553 33.5572 25.1687 34.2064 25.6125 34.6915C26.5671 35.7235 28.1874 35.7952 29.2314 34.8518C29.2879 34.8008 29.342 34.7473 29.3936 34.6915C29.8275 34.2202 30.0406 33.59 29.9803 32.9555L29.4501 21.2555C30.4677 20.7228 31.1853 19.762 31.4007 18.6439C31.6373 17.3147 31.5542 15.949 31.158 14.6574ZM29.9561 18.3917C29.7973 19.1957 29.2176 19.8554 28.4344 20.1233C28.1371 20.2337 27.9456 20.5208 27.9599 20.8343L28.5173 33.0701C28.5429 33.3101 28.4628 33.5494 28.2973 33.7268C27.8557 34.1588 27.1446 34.1588 26.703 33.7268C26.5292 33.535 26.4503 33.277 26.4874 33.0222L27.0403 20.8343C27.0546 20.5208 26.8631 20.2337 26.5659 20.1233C25.7827 19.8554 25.203 19.1957 25.0442 18.3917C24.848 17.2881 24.9172 16.1544 25.2459 15.0821L25.7167 13.5499C26.081 12.5763 27.1747 12.079 28.1598 12.4391C28.6805 12.6294 29.091 13.0352 29.2836 13.5499L29.7544 15.0821C30.0827 16.1545 30.1519 17.2881 29.9561 18.3917Z"/>
<path d="M19.8 10.8723C19.395 10.8723 19.0667 11.1969 19.0667 11.5971V17.8205L17.0815 19.7826C16.9347 19.9272 16.8566 20.1266 16.8667 20.3313L17.5083 33.0157C17.5236 33.2892 17.4232 33.5567 17.2311 33.7543C16.8297 34.1545 16.176 34.1574 15.7709 33.7606C15.7687 33.7585 15.7666 33.7563 15.7645 33.7543C15.5723 33.5567 15.472 33.2892 15.4873 33.0157L16.1333 20.3313C16.1436 20.1267 16.0658 19.9273 15.9192 19.7826L13.9333 17.8205V11.5971C13.9333 11.1969 13.605 10.8723 13.2 10.8723C12.795 10.8723 12.4667 11.1969 12.4667 11.5971V18.1205C12.4667 18.3128 12.544 18.4971 12.6815 18.633L14.6513 20.5806L14.0257 32.9454C13.9592 34.296 15.013 35.4443 16.3795 35.51C17.7459 35.5758 18.9077 34.5343 18.9743 33.1836C18.9782 33.1043 18.9782 33.0248 18.9743 32.9454L18.3487 20.5807L20.3185 18.6331C20.456 18.4972 20.5333 18.3129 20.5333 18.1206V11.5972C20.5333 11.1969 20.205 10.8723 19.8 10.8723Z"/>
<path d="M15.4 10.8723C14.995 10.8723 14.6667 11.1969 14.6667 11.5971V17.3957C14.6667 17.796 14.995 18.1205 15.4 18.1205C15.805 18.1205 16.1334 17.796 16.1334 17.3957V11.5971C16.1334 11.1969 15.805 10.8723 15.4 10.8723Z"/>
<path d="M17.6 10.8723C17.195 10.8723 16.8666 11.1969 16.8666 11.5971V17.3957C16.8666 17.796 17.195 18.1205 17.6 18.1205C18.005 18.1205 18.3333 17.796 18.3333 17.3957V11.5971C18.3333 11.1969 18.005 10.8723 17.6 10.8723Z"/>
<path d="M22 0C9.84977 0 0 9.73546 0 21.7447C0 33.7539 9.84977 43.4894 22 43.4894C34.1502 43.4894 44 33.7539 44 21.7447C43.9863 9.74108 34.1446 0.0135904 22 0ZM22 42.0397C10.6597 42.0397 1.46667 32.9534 1.46667 21.7447C1.46667 10.536 10.6597 1.44965 22 1.44965C33.3403 1.44965 42.5333 10.536 42.5333 21.7447C42.5204 32.948 33.3349 42.027 22 42.0397Z"/>
<path d="M24.3804 35.3511C24.3411 34.9525 23.9824 34.6609 23.5793 34.6998C23.5698 34.7007 23.5604 34.7018 23.551 34.703L23.5539 34.7023C22.5214 34.8209 21.4785 34.8209 20.446 34.7023C20.0436 34.6556 19.6792 34.9404 19.632 35.3383C19.5848 35.7363 19.8727 36.0966 20.2752 36.1433C21.4202 36.2755 22.5768 36.2755 23.7218 36.1433C24.1249 36.1045 24.4198 35.7498 24.3804 35.3511Z"/>
<path d="M33.2202 12.4046C32.9599 12.0979 32.4974 12.0577 32.1871 12.315C32.1861 12.3159 32.1851 12.3168 32.184 12.3176C31.8744 12.5756 31.835 13.0328 32.096 13.3389C36.5175 18.5268 36.1793 26.198 31.3179 30.9861C31.031 31.2687 31.0302 31.7278 31.3161 32.0114C31.602 32.295 32.0665 32.2958 32.3534 32.0132C37.756 26.6936 38.1327 18.1695 33.2202 12.4046Z"/>
<path d="M17.0859 9.58157C17.0854 9.58157 17.085 9.58057 17.0845 9.58057C17.0838 9.58057 17.083 9.58157 17.0822 9.58157H17.0859Z"/>
<path d="M25.4592 7.65335C22.5932 6.97447 19.5874 7.15694 16.8271 8.1774C16.4479 8.31829 16.2563 8.73633 16.3988 9.11097C16.5062 9.39338 16.7794 9.5803 17.0846 9.58057C17.1723 9.58011 17.2592 9.56426 17.3411 9.53355C19.827 8.61474 22.5337 8.45066 25.1145 9.06241C25.5082 9.15646 25.9045 8.91736 25.9996 8.52822C26.0948 8.13908 25.8529 7.7474 25.4592 7.65335Z"/>
<path d="M12.6492 30.9499C10.1771 28.5106 8.79154 25.1973 8.79997 21.7446C8.79273 18.9861 9.67677 16.2974 11.3234 14.0702C11.5667 13.7502 11.5016 13.2958 11.1778 13.0553C10.854 12.8147 10.3943 12.8791 10.151 13.1992C10.1466 13.2049 10.1424 13.2106 10.1383 13.2164C5.89845 18.9776 6.52233 26.9299 11.6101 31.9762C11.8968 32.2598 12.362 32.26 12.6489 31.9766C12.9358 31.6932 12.936 31.2335 12.6492 30.9499Z"/>
</g>
<defs>
<clipPath id="clip0">
<rect width="44" height="43.4894"/>
</clipPath>
</defs>
</svg>

<svg width="44" height="44" xmlns="http://www.w3.org/2000/svg"><g clip-path="url(#clip0)"><path d="M31.158 14.657l-.47-1.531c-.599-1.74-2.51-2.671-4.27-2.08a3.347 3.347 0 00-2.105 2.08l-.47 1.531a8.506 8.506 0 00-.244 3.987 3.754 3.754 0 001.954 2.613l-.527 11.65c-.07.65.143 1.3.587 1.785a2.583 2.583 0 003.78 0 2.248 2.248 0 00.587-1.736l-.53-11.7a3.753 3.753 0 001.95-2.612 8.506 8.506 0 00-.242-3.987zm-1.202 3.735a2.307 2.307 0 01-1.522 1.731.725.725 0 00-.474.711l.557 12.236a.833.833 0 01-.22.657 1.143 1.143 0 01-1.594 0 .864.864 0 01-.216-.705l.553-12.188a.725.725 0 00-.474-.71 2.307 2.307 0 01-1.522-1.732 7.068 7.068 0 01.202-3.31l.47-1.532a1.908 1.908 0 013.568 0l.47 1.532a7.078 7.078 0 01.202 3.31zM19.8 10.872a.73.73 0 00-.733.725v6.223l-1.986 1.963a.72.72 0 00-.214.548l.641 12.685a.98.98 0 01-.277.738c-.401.4-1.055.403-1.46.007l-.007-.007a.98.98 0 01-.277-.738l.646-12.685a.72.72 0 00-.214-.548l-1.986-1.963v-6.223a.73.73 0 00-.733-.725.73.73 0 00-.733.725v6.524a.72.72 0 00.214.512l1.97 1.948-.625 12.364c-.067 1.351.987 2.5 2.354 2.565 1.366.066 2.528-.976 2.594-2.326.004-.08.004-.16 0-.239l-.625-12.364 1.97-1.948a.72.72 0 00.214-.512v-6.524a.73.73 0 00-.733-.725z"/><path d="M15.4 10.872a.73.73 0 00-.733.725v5.799c0 .4.328.724.733.724a.73.73 0 00.733-.724v-5.799a.73.73 0 00-.733-.725zm2.2 0a.73.73 0 00-.733.725v5.799c0 .4.328.724.733.724a.73.73 0 00.733-.724v-5.799a.73.73 0 00-.733-.725z"/><path d="M22 0C9.85 0 0 9.735 0 21.745c0 12.009 9.85 21.744 22 21.744s22-9.735 22-21.744C43.986 9.74 34.145.014 22 0zm0 42.04c-11.34 0-20.533-9.087-20.533-20.295C1.467 10.536 10.66 1.45 22 1.45c11.34 0 20.533 9.086 20.533 20.295C42.52 32.948 33.335 42.027 22 42.04z"/><path d="M24.38 35.351a.731.731 0 00-.829-.648h.003a13.618 13.618 0 01-3.108 0 .732.732 0 00-.814.635.727.727 0 00.643.805 14.94 14.94 0 003.447 0 .727.727 0 00.658-.792zm8.84-22.946a.74.74 0 00-1.036-.087.72.72 0 00-.088 1.02 12.936 12.936 0 01-.778 17.648.72.72 0 00-.002 1.025.74.74 0 001.037.002 14.374 14.374 0 00.867-19.608zM17.086 9.582l-.002-.001h-.002.004z"/><path d="M25.46 7.653a14.96 14.96 0 00-8.633.524.722.722 0 00.258 1.404.742.742 0 00.256-.047 13.47 13.47 0 017.773-.472.724.724 0 10.345-1.41zM12.65 30.95a12.887 12.887 0 01-3.85-9.205 12.85 12.85 0 012.523-7.675.72.72 0 00-.145-1.015.739.739 0 00-1.04.161 14.371 14.371 0 001.472 18.76.74.74 0 001.039 0 .72.72 0 000-1.026z"/></g><defs><clipPath id="clip0"><path d="M0 0h44v43.489H0z"/></clipPath></defs></svg>
